X:238
T:En despit des faulx envieux (Chanson 10)
S:from bay10.MID
C:Manuscript de Bayeux (fin XVe)
R:Chanson
M:4/4
L:1/8
Q:1/4=120
K:C 
V:1
a2 aa e3/2f/2 ga | gf/2e/2 f2 e4 | ze a3/2a/2 ag ab | c'2zc' b2 g2 | 
a4 g4 | b2 bc'2<d'2d' | c'b/2a/2 b2 a2za | g>ff2 e3/2f/2 ga | 
f2 d2 e4 | d8 | d'2 d'd'2<a2c' | c'b/2a/2 b2 a4 | 
c'2 c'c' g3/2a/2 bc' | a2 a2 g4 | d'2 d'd'2<e'2d' | c'b/2a/2 b2 a3/2b/2 c'd' | 
g2 a2 g4 | b3c'2<d'2d' | c'b/2a/2 b2 a2za | gf/2e/2 f2 e3/2f/2 ga | 
f2 d2 e4 | d8 |]
V:2 clef=perc stafflines=1 staffscale=0.8
K:none
B2 BB B2 BB | B2 BB B2 BB | B2 BB B2 BB | B2 BB B2 BB | 
B2 BB B2 BB | B2 BB B2 BB | B2 BB B2 BB | B2 BB B2 BB | 
B2 BB B2 BB | B2 BB B2 BB | B2 BB B2 BB | B2 BB B2 BB | 
B2 BB B2 BB | B2 BB B2 BB | B2 BB B2 BB | B2 BB B2 BB | 
B2 BB B2 BB | B2 BB B2 BB | B2 BB B2 BB | B2 BB B2 BB | 
B2 BB B2 BB | B2 BB B4 |]





